!!!COM: Ockeghem, Johannes
!!!CDT: ~1425-1497/02/06
!!!OTL: Ma bouche rit
!!!AGN: Song; Chanson
!!!SCT: Ock3011
!!!SCA: Ock3011
!!!voices: 3
**kern	**text	**kern	**text	**kern	**text
*staff3	*staff3	*staff2	*staff2	*staff1	*staff1
*Ivox	*	*Ivox	*	*Ivox	*
*I"Contra	*	*I"Tenor	*	*I"Discantus	*
*I'C	*	*I'T	*	*I'D	*
*>[A,B]	*>[A,B]	*>[A,B]	*>[A,B]	*>[A,B]	*>[A,B]
*>A	*>A	*>A	*>A	*>A	*>A
*clefGv2	*	*clefGv2	*	*clefG2	*
*k[]	*	*k[]	*	*k[]	*
*M2/1	*	*M2/1	*	*M2/1	*
*met(C)	*	*met(C)	*	*met(C)	*
=1-	=1-	=1-	=1-	=1-	=1-
!!LO:TX:Z=12:t=Form&colon; vierlai
1A	Ma	0r	.	0a	Ma
1A	bou-	.	.	.	.
=2	=2	=2	=2	=2	=2
1A	-che	0r	.	1e	bou-
[1c	rit	.	.	1e	-che
=3	=3	=3	=3	=3	=3
2c]	.	0A	Ma	1a	rit
2A	et	.	.	.	.
2.c	ma	.	.	1a	et
4d	.	.	.	.	.
=4	=4	=4	=4	=4	=4
0e	.	1E	bou-	1g	ma
.	.	1E	-che	1g	pen-
=5	=5	=5	=5	=5	=5
1.e	pen-	1A	rit	1cc	-s&eacute;-
.	.	1A	et	1cc	-e
2c	.	.	.	.	.
=6	=6	=6	=6	=6	=6
1d	-s&eacute;e	2.G	ma	1b	pleu-
.	.	4F	.	.	.
1r	.	2E	.	2cc	.
.	.	2D	pen-	[2dd	.
=7	=7	=7	=7	=7	=7
1r	.	2G	-s&eacute;-	2dd]	.
.	.	2A	-e	2cc	.
[1e	pleu-	2.c	pleu-	1a	.
.	.	4B	.	.	.
=8	=8	=8	=8	=8	=8
2e]	.	1G	-re,	1b	-re,
4d	.	.	.	.	.
4c	.	.	.	.	.
[1c	-re,	1r	.	1e	.
=9	=9	=9	=9	=9	=9
0c]	.	0e	Mon	1r	.
.	.	.	.	1g	Mon
=10	=10	=10	=10	=10	=10
1r	.	1.d	oeil	1a	oeil
1G	Mon	.	.	1b	s'es-
.	.	2c	.	.	.
=11	=11	=11	=11	=11	=11
1A	oeil	1A	.	1.cc	-joy-
1F	.	1A	s'es-	.	.
.	.	.	.	4b	.
.	.	.	.	4a	.
=12	=12	=12	=12	=12	=12
2r	.	1G	-joye	1b	.
1G	s'es-	.	.	.	.
.	.	2r	.	1e	-e et
[2C	-joye et	[2G	et	.	.
=13	=13	=13	=13	=13	=13
2C]	.	2G]	.	1e	mon
2C	mon	2A	mon	.	.
1G	cueur	1B	cueur	1d	cueur
=14	=14	=14	=14	=14	=14
2r	.	1c	maul-	1e	maul-
2C	maul-	.	.	.	.
1D	-dit	1A	-dit	1f	-dit
=15	=15	=15	=15	=15	=15
2E	l'eu-	2G	l'eu-	1.g	l'eu-
1C	.	1E	.	.	.
[2c	.	2C	.	2e	.
=16	=16	=16	=16	=16	=16
2c]	.	1D	.	1f	.
2B	.	.	.	.	.
1c	-re,	1C	-re	1e	-re,
=17	=17	=17	=17	=17	=17
1f	l'eu-	0r	.	1a	l'eu-
2d	.	.	.	2f	.
[2e	.	.	.	[2g	.
=18	=18	=18	=18	=18	=18
4e]	.	0r	.	2g]	.
4c	.	.	.	.	.
1c	.	.	.	2e	.
.	.	.	.	1d	.
2B	.	.	.	.	.
=19	=19	=19	=19	=19	=19
2c	-re	1e	Qu'il	1c	-re
1A	Qu'il	.	.	.	.
.	.	2c	.	1r	.
[2G	.	[2d	.	.	.
=20	=20	=20	=20	=20	=20
2G]	.	2d]	.	1r	.
2d	.	2B	.	.	.
2c	.	1A	.	1cc	Qu'il
[2e	eut	.	.	.	.
=21	=21	=21	=21	=21	=21
2e]	.	1G	eut	1.b	eut
2d	.	.	.	.	.
1B	le	2r	.	.	.
.	.	2G	le	2g	le
=22	=22	=22	=22	=22	=22
2.A	bien	2.c	bien	1a	bien
4B	.	4d	.	.	.
1c	.	1e	qui	2.g	qui
.	.	.	.	4a	.
=23	=23	=23	=23	=23	=23
1G	qui	2.d	sa	2b	.
.	.	.	.	4a	sa
.	.	4c	.	4b	.
1F	.	1A	san-	1cc	san-
=24	=24	=24	=24	=24	=24
2r	.	1G	-t&eacute;	2b	-t&eacute;
2.E	sa	.	.	1g	.
.	.	[1c	des-	.	.
4C	.	.	.	.	.
[2F	san-	.	.	[2a	des-
=25	=25	=25	=25	=25	=25
2F]	.	2c]	.	2a]	.
2G	.	2B	.	1g	-chas-
1D	-t&eacute;	1A	-chas-	.	.
.	.	.	.	2f#i	.
=26	=26	=26	=26	=26	=26
2r	.	1G	-se	0g	-se
1E	des-	.	.	.	.
.	.	2r	.	.	.
2C	.	[2c	Et	.	.
=27	=27	=27	=27	=27	=27
2.F	-chas-	2c]	.	1r	.
.	.	2d	.	.	.
4E	.	.	.	.	.
1C	-se	1e	.	[1g	Et
=28	=28	=28	=28	=28	=28
0r	.	1c	le	1g]	.
.	.	1f	plai-	1a	le
=29	=29	=29	=29	=29	=29
1C	Et	2e	-sir	2g	plai-
.	.	2c	.	1cc	.
1G	le	1d	.	.	.
.	.	.	.	2b	.
=30	=30	=30	=30	=30	=30
1A	plai-	1c	.	1cc	-sir
[1G	-sir	1r	.	2b	que
.	.	.	.	2cc	la
=31	=31	=31	=31	=31	=31
1G]	.	1B	que	1dd	mort
2r	.	1c	.	2cc	.
2A	que	.	.	[2a	.
=32	=32	=32	=32	=32	=32
2F	la	2d	.	2a]	.
2G	.	1d	la	4g	.
.	.	.	.	4f	.
1A	.	.	.	1e	.
.	.	2c#i	.	.	.
=33	=33	=33	=33	=33	=33
2B	mort	1d	mort	2d	.
2d	.	.	.	2f	.
2c	.	2r	.	1e	.
2A	.	2c	luy	.	.
=34	=34	=34	=34	=34	=34
2B	.	2d	pour-	2r	.
1d	luy	2f	.	2a	luy
.	.	1e	.	2b	pour-
2c	pour-	.	.	2cc	.
=35	=35	=35	=35	=35	=35
2B	-chas-	1.d	-chas-	2.dd	-chas-
1G	.	.	.	.	.
.	.	.	.	4cc	.
.	.	.	.	4b	.
.	.	.	.	4a	.
2A	.	2c	.	[2a	.
=36	=36	=36	=36	=36	=36
1E	.	1B	.	2a]	.
.	.	.	.	2g#i	.
2F	.	2.A	.	1a	-se
2D	.	.	.	.	.
.	.	8GL	.	.	.
.	.	8FJ	.	.	.
=37	=37	=37	=37	=37	=37
2C	.	1E	.	0r	.
2.G	.	.	.	.	.
.	.	2G	.	.	.
4E	.	.	.	.	.
2F	.	2A	.	.	.
=38	=38	=38	=38	=38	=38
1D	.	1B	-se	1r	.
1C	-se	1c	Sans	1e	Sans
=39	=39	=39	=39	=39	=39
0r	.	2B	re-	2g	re-
.	.	2c	-con-	2a	.
.	.	2.d	-fort	1b	-con-
.	.	4c	.	.	.
=40	=40	=40	=40	=40	=40
0e	qui	1A	.	1cc	-fort
.	.	2G	qui	2b	qui
.	.	2A	.	2cc	.
=41	=41	=41	=41	=41	=41
1d	.	2B	m'ai-	2.dd	m'ai-
.	.	2G	.	.	.
.	.	.	.	4cc	.
2r	.	2A	.	1a	.
2d	m'ai-	2F	.	.	.
=42	=42	=42	=42	=42	=42
2e	.	1E	.	1g	-de
2c	.	.	.	.	.
1d	-de	1D	-de	2r	.
.	.	.	.	[2a	ne
=43	=43	=43	=43	=43	=43
2.c	ne	1F	ne	2a]	.
.	.	.	.	4g	.
4A	.	.	.	4f	.
2B	.	2G	se-	1e	se-
2c	.	2A	.	.	.
=44	=44	=44	=44	=44	=44
2G	.	2B	-queu-	2d	-queu-
2r	.	2c	.	2e	.
2.c	se-	1A	.	4f	.
.	.	.	.	4e	.
.	.	.	.	4d	.
8BL	.	.	.	4c	.
8AJ	.	.	.	.	.
=45	=45	=45	=45	=45	=45
2G	.	2E	.	2B	.
1B	-queu-	2G	.	1e	.
.	.	1F	.	.	.
2A	.	.	.	2d	.
=46	=46	=46	=46	=46	=46
0Bl	-re.	0El	-re.	0el	-re.
!!LO:LB:g=z
=||	=||	=||	=||	=||	=||
*>B	*>B	*>B	*>B	*>B	*>B
*clefGv2	*	*clefGv2	*	*clefG2	*
*k[]	*	*k[]	*	*k[]	*
*M2/1	*	*M2/1	*	*M2/1	*
*met(C|)	*	*met(C|)	*	*met(C|)	*
1.d	Ha,	0B	Ha,	0r	.
2c	.	.	.	.	.
=47	=47	=47	=47	=47	=47
1A	cuer	1c	cuer	0r	.
1A	per-	1c	per-	.	.
=48	=48	=48	=48	=48	=48
0G	-vers,	1.d	-vers,	0b	Ha,
.	.	2c	.	.	.
=49	=49	=49	=49	=49	=49
2.c	faul-	1A	.	1cc	cuer
4d	.	.	.	.	.
1e	.	1A	faul-	1cc	per-
=50	=50	=50	=50	=50	=50
1d	-sai-	2D	-sai-	1dd	-vers,
.	.	1G	.	.	.
2B	-re et	.	.	1dd	faul-
2c	.	2A	-re et	.	.
=51	=51	=51	=51	=51	=51
1d	men-	1B	men-	1g	-sai-
1e	.	2.c	-son-	1a	-re et
.	.	4B	.	.	.
=52	=52	=52	=52	=52	=52
2r	.	1G	-ger,	1b	men-
1E	-son-	.	.	.	.
.	.	1r	.	2.cc	-son-
2F	.	.	.	.	.
.	.	.	.	4b	.
=53	=53	=53	=53	=53	=53
1G	-ger,	1r	.	1g	-ger,
1C	.	[1c	Dic-	1r	.
=54	=54	=54	=54	=54	=54
0F	Dic-	2c]	.	0a	Dic-
.	.	2F	.	.	.
.	.	[1F	-tes	.	.
=55	=55	=55	=55	=55	=55
1.c	-tes	1F]	.	1a	-tes
.	.	1F	com-	1a	com-
[2A	com-	.	.	.	.
=56	=56	=56	=56	=56	=56
2A]	.	1F	-ment	1.a	-ment
2B	.	.	.	.	.
[1c	-ment	[1C	.	.	.
.	.	.	.	2g	.
=57	=57	=57	=57	=57	=57
1c]	.	1C]	.	1e	.
1C	a-	1c	a-	1e	a-
=58	=58	=58	=58	=58	=58
2.G	-vez	1B	-vez	1d	-vez
4F	.	.	.	.	.
1E	o-	1c	o-	1e	o-
=59	=59	=59	=59	=59	=59
1D	-s&eacute;	1d	-s&eacute;	1f	-s&eacute;
1E	son-	1B	son-	1g	son-
=60	=60	=60	=60	=60	=60
1C	-ger	1c	-ger	1e	-ger
1F	.	1A	.	1c	.
=61	=61	=61	=61	=61	=61
0r	.	2r	.	2e	Que
.	.	2A	Que	2f	de
.	.	2G	de	1g	faul-
.	.	[2c	faul-	.	.
=62	=62	=62	=62	=62	=62
0r	.	4c]	.	2e	.
.	.	4B	.	.	.
.	.	2c	.	1f	.
.	.	2d	.	.	.
.	.	2B	.	2d	.
=63	=63	=63	=63	=63	=63
1C	Que	2.c	-ser	1e	-ser
.	.	4d	.	.	.
2.c	de	1e	.	1A	.
4d	.	.	.	.	.
=64	=64	=64	=64	=64	=64
1e	faul-	1A	.	1r	.
1A	-ser	1r	.	[1cc	ce
=65	=65	=65	=65	=65	=65
1r	.	0A	ce	1cc]	.
1e	que	.	.	1cc	que
=66	=66	=66	=66	=66	=66
1c	m'a-	1A	que	1cc	m'a-
1d	-vez	1G	m'a-	1b	-vez
=67	=67	=67	=67	=67	=67
2r	.	2A	-vez	2cc	pro-
2d	pro-	2G	pro-	2.dd	.
1e	.	2c	.	.	.
.	.	.	.	4cc	.
.	.	2d	.	4b	.
.	.	.	.	4a	.
=68	=68	=68	=68	=68	=68
2.EN	-mis.&	1eN	-mis.&	2.gN	-mis.&
4F	.	.	.	4a	.
2G	.	1e	.	2b	.
[2A	.	.	.	[2cc	.
=69	=69	=69	=69	=69	=69
2A]	.	1e	.	2cc]	.
2G	.	.	.	4b	.
.	.	.	.	4a	.
2A	.	2c	.	2cc	.
2B	.	2d	.	2b	.
=70	=70	=70	=70	=70	=70
2E	.	2e	.	2g	.
2F	.	2A	.	1a	.
1E	.	1B	.	.	.
.	.	.	.	2g#i	.
=71	=71	=71	=71	=71	=71
0el	.	0Al	.	0al	.
!!LO:LB:g=z
=||	=||	=||	=||	=||	=||
!!!RDF**kern: l=long note in original notation
!!!RDF**kern: i=editorial accidental
!!!RDF**kern: V=start of tuplet marker
!!!RDF**kern: Z=end of tuplet marker
!!!ENC: Jesse Rodin 17 April 2018
!!!END: 2018/07/16/
!!!EED: Jesse Rodin
!!!EEV: 2018/07/23/
!!!ONB: Translated from MusicXML and edited on 2018/07/23/ by Craig Sapp
!!muse2ps: C^@{COM}\nEd. @{EED}^i2I150v105,105,150Q16z18l2550c75
!!!COM: Ockeghem, Johannes
!!!CDT: ~1425-1497/02/06
!!!OTL: Ma bouche rit
!!!AGN: Song; Chanson
!!!SCT: Ock3011
!!!SCA: Ock3011
!!!voices: 3
*thru	*thru	*thru	*thru	*thru	*thru
*staff3	*staff3	*staff2	*staff2	*staff1	*staff1
*Ivox	*	*Ivox	*	*Ivox	*
*I"Contra	*	*I"Tenor	*	*I"Discantus	*
*I'C	*	*I'T	*	*I'D	*
*>B	*>B	*>B	*>B	*>B	*>B
*clefGv2	*	*clefGv2	*	*clefG2	*
*k[]	*	*k[]	*	*k[]	*
*M2/1	*	*M2/1	*	*M2/1	*
*met(C|)	*	*met(C|)	*	*met(C|)	*
1.d	Puis	0B	Puis	0r	.
2c	.	.	.	.	.
=72	=72	=72	=72	=72	=72
1A	qu'en	1c	qu'en	0r	.
1A	ce	1c	ce	.	.
=73	=73	=73	=73	=73	=73
0G	point	1.d	point	0b	Puis
.	.	2c	.	.	.
=74	=74	=74	=74	=74	=74
2.c	vous	1A	.	1cc	qu'en
4d	.	.	.	.	.
1e	.	1A	vous	1cc	ce
=75	=75	=75	=75	=75	=75
1d	vous	2D	vous	1dd	point
.	.	1G	.	.	.
2B	vou-	.	.	1dd	vous
2c	.	2A	vou-	.	.
=76	=76	=76	=76	=76	=76
1d	-lez	1B	-lez	1g	vous
1e	.	2.c	ven-	1a	vou-
.	.	4B	.	.	.
=77	=77	=77	=77	=77	=77
2r	.	1G	-ger,	1b	-lez
1E	ven-	.	.	.	.
.	.	1r	.	2.cc	ven-
2F	.	.	.	.	.
.	.	.	.	4b	.
=78	=78	=78	=78	=78	=78
1G	-ger,	1r	.	1g	-ger,
1C	.	[1c	Pen-	1r	.
=79	=79	=79	=79	=79	=79
0F	Pen-	2c]	.	0a	Pen-
.	.	2F	.	.	.
.	.	[1F	-sez	.	.
=80	=80	=80	=80	=80	=80
1.c	-sez	1F]	.	1a	-sez
.	.	1F	bien	1a	bien
[2A	bien	.	.	.	.
=81	=81	=81	=81	=81	=81
2A]	.	1F	tost	1.a	tost
2B	.	.	.	.	.
[1c	tost	[1C	.	.	.
.	.	.	.	2g	.
=82	=82	=82	=82	=82	=82
1c]	.	1C]	.	1e	.
1C	de	1c	de	1e	de
=83	=83	=83	=83	=83	=83
2.G	ma	1B	ma	1d	ma
4F	.	.	.	.	.
1E	vie	1c	vie	1e	vie
=84	=84	=84	=84	=84	=84
1D	ab-	1d	ab-	1f	ab-
1E	-re-	1B	-re-	1g	-re-
=85	=85	=85	=85	=85	=85
1C	-ger;	1c	-ger;	1e	-ger;
1F	.	1A	.	1c	.
=86	=86	=86	=86	=86	=86
0r	.	2r	.	2e	Viv-
.	.	2A	Viv-	2f	-re
.	.	2G	-re	1g	ne
.	.	[2c	ne	.	.
=87	=87	=87	=87	=87	=87
0r	.	4c]	.	2e	.
.	.	4B	.	.	.
.	.	2c	.	1f	.
.	.	2d	.	.	.
.	.	2B	.	2d	.
=88	=88	=88	=88	=88	=88
1C	Viv-	2.c	puis	1e	puis
.	.	4d	.	.	.
2.c	-re	1e	.	1A	.
4d	.	.	.	.	.
=89	=89	=89	=89	=89	=89
1e	ne	1A	.	1r	.
1A	puis	1r	.	[1cc	au
=90	=90	=90	=90	=90	=90
1r	.	0A	au	1cc]	.
1e	au	.	.	1cc	point
=91	=91	=91	=91	=91	=91
1c	point	1A	point	1cc	o&ugrave;
1d	o&ugrave;	1G	o&ugrave;	1b	m'a-
=92	=92	=92	=92	=92	=92
2r	.	2A	m'a-	2cc	-vez
2d	m'a-	2G	.	2.dd	mis,
1e	-vez	2c	.	.	.
.	.	.	.	4cc	.
.	.	2d	.	4b	.
.	.	.	.	4a	.
=93	=93	=93	=93	=93	=93
2.EN	mis,	1eN	.	2.gN	.
4F	.	.	.	4a	.
2G	.	1e	-vez	2b	.
[2A	m'a-	.	.	[2cc	m'a-
=94	=94	=94	=94	=94	=94
2A]	.	1e	mis,	2cc]	.
2G	.	.	.	4b	.
.	.	.	.	4a	.
2A	.	2c	m'a-	2cc	.
2B	.	2d	.	2b	.
=95	=95	=95	=95	=95	=95
2E	.	2e	.	2g	.
2F	.	2A	.	1a	.
1E	-vez	1B	-vez	.	.
.	.	.	.	2g#i	-vez
=96	=96	=96	=96	=96	=96
0el	mis.	0Al	mis.	0al	mis.
!!LO:LB:g=z
=||	=||	=||	=||	=||	=||
!!!RDF**kern: l=long note in original notation
!!!RDF**kern: i=editorial accidental
!!!RDF**kern: V=start of tuplet marker
!!!RDF**kern: Z=end of tuplet marker
!!!ENC: Jesse Rodin 17 April 2018
!!!END: 2018/07/16/
!!!EED: Jesse Rodin
!!!EEV: 2018/07/23/
!!!ONB: Translated from MusicXML and edited on 2018/07/23/ by Craig Sapp
!!muse2ps: C^@{COM}\nEd. @{EED}^i2I150v105,105,150Q16z18l2550c75
!!!COM: Ockeghem, Johannes
!!!CDT: ~1425-1497/02/06
!!!OTL: Ma bouche rit
!!!AGN: Song; Chanson
!!!SCT: Ock3011
!!!SCA: Ock3011
!!!voices: 3
*thru	*thru	*thru	*thru	*thru	*thru
*staff3	*staff3	*staff2	*staff2	*staff1	*staff1
*Ivox	*	*Ivox	*	*Ivox	*
*I"Contra	*	*I"Tenor	*	*I"Discantus	*
*I'C	*	*I'T	*	*I'D	*
*>A	*>A	*>A	*>A	*>A	*>A
*clefGv2	*	*clefGv2	*	*clefG2	*
*k[]	*	*k[]	*	*k[]	*
*M2/1	*	*M2/1	*	*M2/1	*
*met(C)	*	*met(C)	*	*met(C)	*
1A	Vos-	0r	.	0a	Vos-
1A	-tre	.	.	.	.
=98	=98	=98	=98	=98	=98
1A	pi-	0r	.	1e	-tre
[1c	-ti&eacute;	.	.	1e	pi-
=99	=99	=99	=99	=99	=99
2c]	.	0A	Vos-	1a	-ti&eacute;
2A	veult	.	.	.	.
2.c	don-	.	.	1a	veult
4d	.	.	.	.	.
=100	=100	=100	=100	=100	=100
0e	-cques	1E	-tre	1g	don-
.	.	1E	pi-	1g	-cques
=101	=101	=101	=101	=101	=101
1.e	que	1A	-ti&eacute;	1cc	que
.	.	1A	veult	1cc	je
2c	.	.	.	.	.
=102	=102	=102	=102	=102	=102
1d	je	2.G	don-	1b	meu-
.	.	4F	.	.	.
1r	.	2E	.	2cc	.
.	.	2D	-cques	[2dd	.
=103	=103	=103	=103	=103	=103
1r	.	2G	que	2dd]	.
.	.	2A	je	2cc	.
[1e	meu-	2.c	meu-	1a	.
.	.	4B	.	.	.
=104	=104	=104	=104	=104	=104
2e]	.	1G	-re,	1b	-re,
4d	.	.	.	.	.
4c	.	.	.	.	.
[1c	-re,	1r	.	1e	.
=105	=105	=105	=105	=105	=105
0c]	.	0e	Mais	1r	.
.	.	.	.	1g	Mais
=106	=106	=106	=106	=106	=106
1r	.	1.d	Ri-	1a	Ri-
1G	Mais	.	.	1b	-gueur
.	.	2c	.	.	.
=107	=107	=107	=107	=107	=107
1A	Ri-	1A	.	1.cc	veult
1F	-gueur	1A	-gueur	.	.
.	.	.	.	4b	.
.	.	.	.	4a	.
=108	=108	=108	=108	=108	=108
2r	.	1G	veult	1b	.
1G	veult	.	.	.	.
.	.	2r	.	1e	que
[2C	que	[2G	que	.	.
=109	=109	=109	=109	=109	=109
2C]	.	2G]	.	1e	vi-
2C	vi-	2A	vi-	.	.
1G	-vant	1B	-vant	1d	-vant
=110	=110	=110	=110	=110	=110
2r	.	1c	je	1e	je
2C	je	.	.	.	.
1D	de-	1A	de-	1f	de-
=111	=111	=111	=111	=111	=111
2E	-meu-	2G	-meu-	1.g	-meu-
1C	.	1E	.	.	.
[2c	.	2C	.	2e	.
=112	=112	=112	=112	=112	=112
2c]	.	1D	.	1f	.
2B	.	.	.	.	.
1c	-re,	1C	-re;	1e	-re,
=113	=113	=113	=113	=113	=113
1f	de-	0r	.	1a	de-
2d	.	.	.	2f	.
[2e	-meu-	.	.	[2g	-meu-
=114	=114	=114	=114	=114	=114
4e]	.	0r	.	2g]	.
4c	.	.	.	.	.
1c	.	.	.	2e	.
.	.	.	.	1d	.
2B	.	.	.	.	.
=115	=115	=115	=115	=115	=115
2c	-re;	1e	Ain-	1c	-re;
1A	Ain-	.	.	.	.
.	.	2c	.	1r	.
[2G	.	[2d	.	.	.
=116	=116	=116	=116	=116	=116
2G]	.	2d]	.	1r	.
2d	.	2B	.	.	.
2c	.	1A	.	1cc	Ain-
[2e	-si	.	.	.	.
=117	=117	=117	=117	=117	=117
2e]	.	1G	-si	1.b	-si
2d	.	.	.	.	.
1B	.	2r	.	.	.
.	.	2G	meurs	2g	meurs
=118	=118	=118	=118	=118	=118
2.A	meurs	2.c	vif	1a	vif
4B	.	4d	.	.	.
1c	.	1e	et	2.g	et
.	.	.	.	4a	.
=119	=119	=119	=119	=119	=119
1G	vif	2.d	en	2b	.
.	.	.	.	4a	en
.	.	4c	.	4b	.
1F	.	1A	vi-	1cc	vi-
=120	=120	=120	=120	=120	=120
2r	.	1G	-vant	2b	-vant
2.E	et	.	.	1g	.
.	.	[1c	tres-	.	.
4C	.	.	.	.	.
[2F	en	.	.	[2a	tres-
=121	=121	=121	=121	=121	=121
2F]	.	2c]	.	2a]	.
2G	vi-	2B	.	1g	-pas-
1D	-vant	1A	-pas-	.	.
.	.	.	.	2f#i	.
=122	=122	=122	=122	=122	=122
2r	.	1G	-se,	0g	-se,
1E	tres-	.	.	.	.
.	.	2r	.	.	.
2C	.	[2c	Mais	.	.
=123	=123	=123	=123	=123	=123
2.F	-pas-	2c]	.	1r	.
.	.	2d	.	.	.
4E	.	.	.	.	.
1C	-se,	1e	.	[1g	Mais
=124	=124	=124	=124	=124	=124
0r	.	1c	pour	1g]	.
.	.	1f	ce-	1a	pour
=125	=125	=125	=125	=125	=125
1C	Mais	2e	-ler	2g	ce-
.	.	2c	.	1cc	.
1G	pour	1d	.	.	.
.	.	.	.	2b	.
=126	=126	=126	=126	=126	=126
1A	ce-	1c	.	1cc	-ler
[1G	-ler	1r	.	2b	le
.	.	.	.	2cc	.
=127	=127	=127	=127	=127	=127
1G]	.	1B	le	1dd	mal
2r	.	1c	.	2cc	.
2A	le	.	.	[2a	.
=128	=128	=128	=128	=128	=128
2F	mal	2d	.	2a]	.
2G	.	1d	.	4g	.
.	.	.	.	4f	.
1A	.	.	.	1e	.
.	.	2c#i	.	.	.
=129	=129	=129	=129	=129	=129
2B	qui	1d	mal	2d	.
2d	.	.	.	2f	.
2c	.	2r	.	1e	.
2A	.	2c	qui	.	.
=130	=130	=130	=130	=130	=130
2B	.	2d	ne	2r	.
1d	ne	2f	.	2a	qui
.	.	1e	se	2b	ne
2c	se	.	.	2cc	se
=131	=131	=131	=131	=131	=131
2B	pas-	1.d	pas-	2.dd	pas-
1G	.	.	.	.	.
.	.	.	.	4cc	.
.	.	.	.	4b	.
.	.	.	.	4a	.
2A	.	2c	.	[2a	.
=132	=132	=132	=132	=132	=132
1E	.	1B	.	2a]	.
.	.	.	.	2g#i	.
2F	.	2.A	.	1a	-se
2D	.	.	.	.	.
.	.	8GL	.	.	.
.	.	8FJ	.	.	.
=133	=133	=133	=133	=133	=133
2C	.	1E	.	0r	.
2.G	.	.	.	.	.
.	.	2G	.	.	.
4E	.	.	.	.	.
2F	.	2A	.	.	.
=134	=134	=134	=134	=134	=134
1D	.	1B	-se	1r	.
1C	-se	1c	Et	1e	Et
=135	=135	=135	=135	=135	=135
0r	.	2B	pour	2g	pour
.	.	2c	couv-	2a	.
.	.	2.d	-rir	1b	couv-
.	.	4c	.	.	.
=136	=136	=136	=136	=136	=136
0e	dueil	1A	.	1cc	-rir
.	.	2G	le	2b	le
.	.	2A	.	2cc	.
=137	=137	=137	=137	=137	=137
1d	.	2B	dueil	2.dd	dueil
.	.	2G	.	.	.
.	.	.	.	4cc	.
2r	.	2A	.	1a	.
2d	o&ugrave;	2F	.	.	.
=138	=138	=138	=138	=138	=138
2e	.	1E	.	1g	o&ugrave;
2c	.	.	.	.	.
1d	je	1D	o&ugrave;	2r	.
.	.	.	.	[2a	je
=139	=139	=139	=139	=139	=139
2.c	la-	1F	je	2a]	.
.	.	.	.	4g	.
4A	.	.	.	4f	.
2B	.	2G	la-	1e	la-
2c	.	2A	.	.	.
=140	=140	=140	=140	=140	=140
2G	.	2B	-beu-	2d	-beu-
2r	.	2c	.	2e	.
2.c	-beu-	1A	.	4f	.
.	.	.	.	4e	.
.	.	.	.	4d	.
8BL	.	.	.	4c	.
8AJ	.	.	.	.	.
=141	=141	=141	=141	=141	=141
2G	.	2E	.	2B	.
1B	.	2G	.	1e	.
.	.	1F	.	.	.
2A	.	.	.	2d	.
=142	=142	=142	=142	=142	=142
0Bl	-re,	0El	-re,	0el	-re,
!!LO:LB:g=z
=||	=||	=||	=||	=||	=||
!!!RDF**kern: l=long note in original notation
!!!RDF**kern: i=editorial accidental
!!!RDF**kern: V=start of tuplet marker
!!!RDF**kern: Z=end of tuplet marker
!!!ENC: Jesse Rodin 17 April 2018
!!!END: 2018/07/16/
!!!EED: Jesse Rodin
!!!EEV: 2018/07/23/
!!!ONB: Translated from MusicXML and edited on 2018/07/23/ by Craig Sapp
!!muse2ps: C^@{COM}\nEd. @{EED}^i2I150v105,105,150Q16z18l2550c75
!!!COM: Ockeghem, Johannes
!!!CDT: ~1425-1497/02/06
!!!OTL: Ma bouche rit
!!!AGN: Song; Chanson
!!!SCT: Ock3011
!!!SCA: Ock3011
!!!voices: 3
*thru	*thru	*thru	*thru	*thru	*thru
*staff3	*staff3	*staff2	*staff2	*staff1	*staff1
*Ivox	*	*Ivox	*	*Ivox	*
*I"Contra	*	*I"Tenor	*	*I"Discantus	*
*I'C	*	*I'T	*	*I'D	*
*>A	*>A	*>A	*>A	*>A	*>A
*clefGv2	*	*clefGv2	*	*clefG2	*
*k[]	*	*k[]	*	*k[]	*
*M2/1	*	*M2/1	*	*M2/1	*
*met(C)	*	*met(C)	*	*met(C)	*
1A	Ma	0r	.	0a	Ma
1A	bou-	.	.	.	.
=144	=144	=144	=144	=144	=144
1A	-che	0r	.	1e	bou-
[1c	rit	.	.	1e	-che
=145	=145	=145	=145	=145	=145
2c]	.	0A	Ma	1a	rit
2A	et	.	.	.	.
2.c	ma	.	.	1a	et
4d	.	.	.	.	.
=146	=146	=146	=146	=146	=146
0e	.	1E	bou-	1g	ma
.	.	1E	-che	1g	pen-
=147	=147	=147	=147	=147	=147
1.e	pen-	1A	rit	1cc	-s&eacute;-
.	.	1A	et	1cc	-e
2c	.	.	.	.	.
=148	=148	=148	=148	=148	=148
1d	-s&eacute;e	2.G	ma	1b	pleu-
.	.	4F	.	.	.
1r	.	2E	.	2cc	.
.	.	2D	pen-	[2dd	.
=149	=149	=149	=149	=149	=149
1r	.	2G	-s&eacute;-	2dd]	.
.	.	2A	-e	2cc	.
[1e	pleu-	2.c	pleu-	1a	.
.	.	4B	.	.	.
=150	=150	=150	=150	=150	=150
2e]	.	1G	-re,	1b	-re,
4d	.	.	.	.	.
4c	.	.	.	.	.
[1c	-re,	1r	.	1e	.
=151	=151	=151	=151	=151	=151
0c]	.	0e	Mon	1r	.
.	.	.	.	1g	Mon
=152	=152	=152	=152	=152	=152
1r	.	1.d	oeil	1a	oeil
1G	Mon	.	.	1b	s'es-
.	.	2c	.	.	.
=153	=153	=153	=153	=153	=153
1A	oeil	1A	.	1.cc	-joy-
1F	.	1A	s'es-	.	.
.	.	.	.	4b	.
.	.	.	.	4a	.
=154	=154	=154	=154	=154	=154
2r	.	1G	-joye	1b	.
1G	s'es-	.	.	.	.
.	.	2r	.	1e	-e et
[2C	-joye et	[2G	et	.	.
=155	=155	=155	=155	=155	=155
2C]	.	2G]	.	1e	mon
2C	mon	2A	mon	.	.
1G	cueur	1B	cueur	1d	cueur
=156	=156	=156	=156	=156	=156
2r	.	1c	maul-	1e	maul-
2C	maul-	.	.	.	.
1D	-dit	1A	-dit	1f	-dit
=157	=157	=157	=157	=157	=157
2E	l'eu-	2G	l'eu-	1.g	l'eu-
1C	.	1E	.	.	.
[2c	.	2C	.	2e	.
=158	=158	=158	=158	=158	=158
2c]	.	1D	.	1f	.
2B	.	.	.	.	.
1c	-re,	1C	-re	1e	-re,
=159	=159	=159	=159	=159	=159
1f	l'eu-	0r	.	1a	l'eu-
2d	.	.	.	2f	.
[2e	.	.	.	[2g	.
=160	=160	=160	=160	=160	=160
4e]	.	0r	.	2g]	.
4c	.	.	.	.	.
1c	.	.	.	2e	.
.	.	.	.	1d	.
2B	.	.	.	.	.
=161	=161	=161	=161	=161	=161
2c	-re	1e	Qu'il	1c	-re
1A	Qu'il	.	.	.	.
.	.	2c	.	1r	.
[2G	.	[2d	.	.	.
=162	=162	=162	=162	=162	=162
2G]	.	2d]	.	1r	.
2d	.	2B	.	.	.
2c	.	1A	.	1cc	Qu'il
[2e	eut	.	.	.	.
=163	=163	=163	=163	=163	=163
2e]	.	1G	eut	1.b	eut
2d	.	.	.	.	.
1B	le	2r	.	.	.
.	.	2G	le	2g	le
=164	=164	=164	=164	=164	=164
2.A	bien	2.c	bien	1a	bien
4B	.	4d	.	.	.
1c	.	1e	qui	2.g	qui
.	.	.	.	4a	.
=165	=165	=165	=165	=165	=165
1G	qui	2.d	sa	2b	.
.	.	.	.	4a	sa
.	.	4c	.	4b	.
1F	.	1A	san-	1cc	san-
=166	=166	=166	=166	=166	=166
2r	.	1G	-t&eacute;	2b	-t&eacute;
2.E	sa	.	.	1g	.
.	.	[1c	des-	.	.
4C	.	.	.	.	.
[2F	san-	.	.	[2a	des-
=167	=167	=167	=167	=167	=167
2F]	.	2c]	.	2a]	.
2G	.	2B	.	1g	-chas-
1D	-t&eacute;	1A	-chas-	.	.
.	.	.	.	2f#i	.
=168	=168	=168	=168	=168	=168
2r	.	1G	-se	0g	-se
1E	des-	.	.	.	.
.	.	2r	.	.	.
2C	.	[2c	Et	.	.
=169	=169	=169	=169	=169	=169
2.F	-chas-	2c]	.	1r	.
.	.	2d	.	.	.
4E	.	.	.	.	.
1C	-se	1e	.	[1g	Et
=170	=170	=170	=170	=170	=170
0r	.	1c	le	1g]	.
.	.	1f	plai-	1a	le
=171	=171	=171	=171	=171	=171
1C	Et	2e	-sir	2g	plai-
.	.	2c	.	1cc	.
1G	le	1d	.	.	.
.	.	.	.	2b	.
=172	=172	=172	=172	=172	=172
1A	plai-	1c	.	1cc	-sir
[1G	-sir	1r	.	2b	que
.	.	.	.	2cc	la
=173	=173	=173	=173	=173	=173
1G]	.	1B	que	1dd	mort
2r	.	1c	.	2cc	.
2A	que	.	.	[2a	.
=174	=174	=174	=174	=174	=174
2F	la	2d	.	2a]	.
2G	.	1d	la	4g	.
.	.	.	.	4f	.
1A	.	.	.	1e	.
.	.	2c#i	.	.	.
=175	=175	=175	=175	=175	=175
2B	mort	1d	mort	2d	.
2d	.	.	.	2f	.
2c	.	2r	.	1e	.
2A	.	2c	luy	.	.
=176	=176	=176	=176	=176	=176
2B	.	2d	pour-	2r	.
1d	luy	2f	.	2a	luy
.	.	1e	.	2b	pour-
2c	pour-	.	.	2cc	.
=177	=177	=177	=177	=177	=177
2B	-chas-	1.d	-chas-	2.dd	-chas-
1G	.	.	.	.	.
.	.	.	.	4cc	.
.	.	.	.	4b	.
.	.	.	.	4a	.
2A	.	2c	.	[2a	.
=178	=178	=178	=178	=178	=178
1E	.	1B	.	2a]	.
.	.	.	.	2g#i	.
2F	.	2.A	.	1a	-se
2D	.	.	.	.	.
.	.	8GL	.	.	.
.	.	8FJ	.	.	.
=179	=179	=179	=179	=179	=179
2C	.	1E	.	0r	.
2.G	.	.	.	.	.
.	.	2G	.	.	.
4E	.	.	.	.	.
2F	.	2A	.	.	.
=180	=180	=180	=180	=180	=180
1D	.	1B	-se	1r	.
1C	-se	1c	Sans	1e	Sans
=181	=181	=181	=181	=181	=181
0r	.	2B	re-	2g	re-
.	.	2c	-con-	2a	.
.	.	2.d	-fort	1b	-con-
.	.	4c	.	.	.
=182	=182	=182	=182	=182	=182
0e	qui	1A	.	1cc	-fort
.	.	2G	qui	2b	qui
.	.	2A	.	2cc	.
=183	=183	=183	=183	=183	=183
1d	.	2B	m'ai-	2.dd	m'ai-
.	.	2G	.	.	.
.	.	.	.	4cc	.
2r	.	2A	.	1a	.
2d	m'ai-	2F	.	.	.
=184	=184	=184	=184	=184	=184
2e	.	1E	.	1g	-de
2c	.	.	.	.	.
1d	-de	1D	-de	2r	.
.	.	.	.	[2a	ne
=185	=185	=185	=185	=185	=185
2.c	ne	1F	ne	2a]	.
.	.	.	.	4g	.
4A	.	.	.	4f	.
2B	.	2G	se-	1e	se-
2c	.	2A	.	.	.
=186	=186	=186	=186	=186	=186
2G	.	2B	-queu-	2d	-queu-
2r	.	2c	.	2e	.
2.c	se-	1A	.	4f	.
.	.	.	.	4e	.
.	.	.	.	4d	.
8BL	.	.	.	4c	.
8AJ	.	.	.	.	.
=187	=187	=187	=187	=187	=187
2G	.	2E	.	2B	.
1B	-queu-	2G	.	1e	.
.	.	1F	.	.	.
2A	.	.	.	2d	.
=188	=188	=188	=188	=188	=188
0Bl	-re.	0El	-re.	0el	-re.
!!LO:TX:rj:i:Y=150:t=Fine
!!LO:LB:g=z
==	==	==	==	==	==
*-	*-	*-	*-	*-	*-
!!!RDF**kern: l=long note in original notation
!!!RDF**kern: i=editorial accidental
!!!RDF**kern: V=start of tuplet marker
!!!RDF**kern: Z=end of tuplet marker
!!!ENC: Jesse Rodin 17 April 2018
!!!END: 2018/07/16/
!!!EED: Jesse Rodin
!!!EEV: 2018/07/23/
!!!ONB: Translated from MusicXML and edited on 2018/07/23/ by Craig Sapp
!!muse2ps: C^@{COM}\nEd. @{EED}^i2I150v115,115,140z18l2700c75
